themes/asg/static/images/sponsors/pantheon.svg

<svg width="127" height="42" viewBox="0 0 127 42" fill="none" xmlns="http://www.w3.org/2000/svg">
<path d="M1.77485 0.48584L5.58057 9.36H0.675415L2.36685 13.2948H12.2617L1.77485 0.48584Z" fill="white"/>
<path d="M14.8002 32.9684L13.1933 29.0337H10.9099L7.69615 21.499H5.66642L8.88015 29.0337H3.12927L13.7853 41.9263L9.89501 32.9684H14.8002Z" fill="white"/>
<path d="M16.1538 17.2297C16.2383 17.2297 16.5766 17.0622 16.5766 15.7228C16.5766 14.3833 16.3229 14.2158 16.1538 14.2158H9.30347L10.572 17.2297H16.1538Z" fill="white"/>
<path d="M12.1781 20.9133H16.745C16.8295 20.9133 17.1678 20.7458 17.1678 19.4063C17.1678 18.0669 16.9141 17.8994 16.745 17.8994H10.825L12.1781 20.9133Z" fill="white"/>
<path d="M16.1527 25.0991H9.979L11.2476 28.113H16.1527C16.2373 28.113 16.5756 27.9455 16.5756 26.6061C16.5756 25.2666 16.2373 25.0991 16.1527 25.0991Z" fill="white"/>
<path d="M16.7458 21.499H8.37317L9.64174 24.5129H16.6612C16.7458 24.5129 17.0841 24.3454 17.0841 23.006C17.1686 21.6665 16.9149 21.499 16.7458 21.499Z" fill="white"/>
<path d="M16.1527 25.0991H9.979L11.2476 28.113H16.1527C16.2373 28.113 16.5756 27.9455 16.5756 26.6061C16.5756 25.2666 16.2373 25.0991 16.1527 25.0991Z" fill="white"/>
<path d="M16.7458 21.499H8.37317L9.64174 24.5129H16.6612C16.7458 24.5129 17.0841 24.3454 17.0841 23.006C17.1686 21.6665 16.9149 21.499 16.7458 21.499Z" fill="white"/>
<path d="M7.44231 20.914L5.92002 17.3142H6.68117L8.20345 20.914H11.4172L8.54174 14.3003H1.43772C0.93029 14.3003 0.592003 14.3003 0.338288 15.0538C0.084573 15.9747 0 17.7328 0 21.2489C0 24.6814 1.28542e-06 26.4395 0.338288 27.4441C0.592003 28.1976 0.845718 28.1976 1.43772 28.1976H7.69603L4.65144 20.914H7.44231Z" fill="white"/>
<path d="M43.1303 15.1367H39.7474L34.8423 27.527H38.2252L39.0709 25.4341H43.5532L44.3143 27.527H47.7818L43.1303 15.1367ZM40.0857 23.0062L41.4389 19.0715L42.7075 23.0062H40.0857Z" fill="white"/>
<path d="M30.3617 15.1357H25.4565V27.5261H28.8394V23.3401H30.5308C33.3217 23.3401 34.9286 22.1681 34.9286 19.2379C34.844 16.3915 33.068 15.1357 30.3617 15.1357ZM29.1777 20.9123H28.7548V17.8985H29.1777C30.4463 17.8985 31.4611 17.8985 31.4611 19.4054C31.5457 20.9123 30.3617 20.9123 29.1777 20.9123Z" fill="white"/>
<path d="M93.6192 22.6714H96.9175V19.9924H93.6192V17.8994H98.1861V15.1367H90.2363V27.527H98.1861V24.5132H93.6192V22.6714Z" fill="white"/>
<path d="M64.2739 18.4855H67.3185V27.527H70.6168V18.4855H73.746V15.1367H64.2739V18.4855Z" fill="white"/>
<path d="M84.0633 19.9924H79.4964V15.1367H76.1135V27.527H79.4964V22.6714H84.0633V27.527H87.4461V15.1367H84.0633V19.9924Z" fill="white"/>
<path d="M106.305 18.4855C107.912 18.4855 109.181 19.7412 109.181 21.3319C109.181 22.9225 107.912 24.1783 106.305 24.1783C104.698 24.1783 103.43 22.9225 103.43 21.3319C103.345 19.7412 104.698 18.4855 106.305 18.4855ZM106.305 15.1367C102.838 15.1367 100.047 17.8994 100.047 21.3319C100.047 24.7643 102.838 27.527 106.305 27.527C109.773 27.527 112.563 24.7643 112.563 21.3319C112.563 17.8994 109.688 15.1367 106.305 15.1367Z" fill="white"/>
<path d="M123.559 22.0844L118.146 15.1357H115.017V27.5261H118.315V20.5774L123.474 27.5261H126.857V15.1357H123.559V22.0844Z" fill="white"/>
<path d="M58.4387 22.0853L53.0261 15.1367H49.897V27.527H53.2798L53.1953 20.5784L58.3541 27.527H61.8216V15.1367H58.4387V22.0853Z" fill="white"/>
</svg>

<svg width="127" height="42" fill="none" xmlns="http://www.w3.org/2000/svg"><path d="M1.775.486L5.58 9.36H.675l1.692 3.935h9.895L1.775.485zM14.8 32.968l-1.607-3.934H10.91l-3.214-7.535h-2.03l3.214 7.535H3.13l10.655 12.892-3.89-8.958H14.8zm1.354-15.738c.084 0 .423-.168.423-1.507 0-1.34-.254-1.507-.423-1.507h-6.85l1.268 3.014h5.582zm-3.976 3.683h4.567c.084 0 .423-.167.423-1.507 0-1.34-.254-1.507-.423-1.507h-5.92l1.353 3.014z" fill="#fff"/><path d="M16.153 25.1H9.979l1.269 3.013h4.905c.084 0 .423-.168.423-1.507 0-1.34-.339-1.507-.423-1.507zm.593-3.601H8.373l1.269 3.014h7.02c.084 0 .422-.168.422-1.507.085-1.34-.17-1.507-.338-1.507z" fill="#fff"/><path d="M16.153 25.1H9.979l1.269 3.013h4.905c.084 0 .423-.168.423-1.507 0-1.34-.339-1.507-.423-1.507zm.593-3.601H8.373l1.269 3.014h7.02c.084 0 .422-.168.422-1.507.085-1.34-.17-1.507-.338-1.507z" fill="#fff"/><path d="M7.442 20.914l-1.522-3.6h.761l1.522 3.6h3.214L8.542 14.3H1.438c-.508 0-.846 0-1.1.754-.253.92-.338 2.679-.338 6.195 0 3.432 0 5.19.338 6.195.254.754.508.754 1.1.754h6.258l-3.045-7.284h2.791zm35.688-5.777h-3.383l-4.905 12.39h3.383l.846-2.093h4.482l.761 2.093h3.468l-4.652-12.39zm-3.044 7.87l1.353-3.936 1.269 3.935h-2.622zm-9.724-7.871h-4.905v12.39h3.382V23.34h1.692c2.79 0 4.398-1.172 4.398-4.102-.085-2.846-1.861-4.102-4.567-4.102zm-1.184 5.776h-.423v-3.014h.423c1.268 0 2.283 0 2.283 1.507.085 1.507-1.1 1.507-2.283 1.507zm64.442 1.759h3.297v-2.679H93.62V17.9h4.567v-2.762h-7.95v12.39h7.95v-3.014H93.62v-1.842zm-29.346-4.186h3.044v9.042h3.299v-9.042h3.129v-3.348h-9.472v3.348zm19.789 1.507h-4.567v-4.855h-3.382v12.39h3.382v-4.856h4.567v4.856h3.383v-12.39h-3.383v4.855zm22.242-1.507c1.607 0 2.876 1.256 2.876 2.847 0 1.59-1.269 2.846-2.876 2.846s-2.875-1.256-2.875-2.846c-.085-1.59 1.268-2.847 2.875-2.847zm0-3.348c-3.467 0-6.258 2.762-6.258 6.195 0 3.432 2.791 6.195 6.258 6.195 3.468 0 6.258-2.763 6.258-6.195 0-3.433-2.875-6.195-6.258-6.195zm17.254 6.947l-5.413-6.948h-3.129v12.39h3.298v-6.949l5.159 6.95h3.383V15.135h-3.298v6.948zm-65.12.001l-5.413-6.948h-3.129v12.39h3.383l-.085-6.949 5.16 6.949h3.467v-12.39h-3.383v6.948z" fill="#fff"/></svg>
